src/symbols/keycap/0033-FE0F-20E3.svg

<svg id="emoji" viewBox="0 0 72 72" xmlns="http://www.w3.org/2000/svg">
  <g id="grid">
    <path fill="#b3b3b3" d="M68,4V68H4V4H68m4-4H0V72H72V0Z"/>
    <path fill="none" stroke="#00a5ff" stroke-miterlimit="10" stroke-width="0.1" d="M12.923,10.9583H59.0769A1.9231,1.9231,0,0,1,61,12.8814V59.0352a1.9231,1.9231,0,0,1-1.9231,1.9231H12.9231A1.9231,1.9231,0,0,1,11,59.0352V12.8813A1.923,1.923,0,0,1,12.923,10.9583Z"/>
    <rect x="16" y="4" rx="2.2537" ry="2.2537" width="40" height="64" fill="none" stroke="#00a5ff" stroke-miterlimit="10" stroke-width="0.1"/>
    <rect x="16" y="4" rx="2.2537" ry="2.2537" width="40" height="64" transform="translate(72) rotate(90)" fill="none" stroke="#00a5ff" stroke-miterlimit="10" stroke-width="0.1"/>
    <circle cx="36" cy="36" r="29" fill="none" stroke="#00a5ff" stroke-miterlimit="10" stroke-width="0.1"/>
  </g>
  <g id="color">
    <rect x="12" y="12.1663" width="48" height="47.834" fill="#d0cfce"/>
  </g>
  <g id="line">
    <rect x="12.25" y="11.9163" width="48" height="48" fill="none" stroke="#000" stroke-linecap="round" stroke-linejoin="round" stroke-width="2"/>
    <path fill="none" stroke="#000" stroke-linecap="round" stroke-linejoin="round" stroke-width="2" d="M31.419,41.1153A4.7759,4.7759,0,0,0,36.2,44.57h0a4.6288,4.6288,0,0,0,4.8806-4.327A4.6287,4.6287,0,0,0,36.2,35.9163a4.6287,4.6287,0,0,0,4.8806-4.3269A4.6288,4.6288,0,0,0,36.2,27.2624h0a4.7763,4.7763,0,0,0-4.7814,3.4549"/>
  </g>
</svg>

<svg id="emoji" version="1.1" viewBox="0 0 72 72" xmlns="http://www.w3.org/2000/svg">
 <g id="grid">
  <path d="m68 4v64h-64v-64h64m4-4h-72v72h72z" fill="#b3b3b3"/>
  <path d="m12.92 10.96h46.15a1.923 1.923 0 0 1 1.923 1.923v46.15a1.923 1.923 0 0 1-1.923 1.923h-46.15a1.923 1.923 0 0 1-1.923-1.923v-46.15a1.923 1.923 0 0 1 1.923-1.923z" fill="none" stroke="#00a5ff" stroke-miterlimit="10" stroke-width=".1"/>
  <rect x="16" y="4" width="40" height="64" rx="2.254" ry="2.254" fill="none" stroke="#00a5ff" stroke-miterlimit="10" stroke-width=".1"/>
  <rect transform="rotate(90,36,36)" x="16" y="4" width="40" height="64" rx="2.254" ry="2.254" fill="none" stroke="#00a5ff" stroke-miterlimit="10" stroke-width=".1"/>
  <circle cx="36" cy="36" r="29" fill="none" stroke="#00a5ff" stroke-miterlimit="10" stroke-width=".1"/>
 </g>
 <g id="color">
  <rect x="12" y="12" width="48" height="47.83" fill="#92d3f5"/>
  <path d="m31.37 40.9c0.436 1.891 2.322 3.31 4.582 3.31 2.583 0 4.677-1.855 4.677-4.146 0-2.289-2.094-4.146-4.677-4.146 2.583 0 4.677-1.855 4.677-4.146 0-2.289-2.094-4.146-4.677-4.146-2.26 0-4.146 1.424-4.582 3.312" clip-rule="evenodd" fill="none" stroke="#000" stroke-linecap="round" stroke-linejoin="round" stroke-miterlimit="10" stroke-width="4.739px"/>
 </g>
 <g id="line">
  <rect x="12" y="12" width="48" height="48" fill="none" stroke="#000" stroke-linecap="round" stroke-linejoin="round" stroke-width="2"/>
 </g>
</svg>
